Papirus/22x22/panel/tomahawk-indicator.svg

<?xml version="1.0" encoding="UTF-8" standalone="no"?>
<svg xmlns:dc="http://purl.org/dc/elements/1.1/" xmlns:cc="http://creativecommons.org/ns#" xmlns:rdf="http://www.w3.org/1999/02/22-rdf-syntax-ns#" xmlns:svg="http://www.w3.org/2000/svg" xmlns="http://www.w3.org/2000/svg" version="1.0" width="22" height="22" id="svg2817">
    <metadata id="metadata57">
        <rdf:RDF>
            <cc:Work rdf:about="">
                <dc:format>
                    image/svg+xml
                </dc:format>
                <dc:type rdf:resource="http://purl.org/dc/dcmitype/StillImage"/>
                <dc:title/>
            </cc:Work>
        </rdf:RDF>
    </metadata>
    <path id="path4142" d="m 11,3 a 8,8 0 0 0 -8,8 8,8 0 0 0 8,8 8,8 0 0 0 8,-8 8,8 0 0 0 -8,-8 z m 0,2 c 3.313708,0 6,2.686291 6,6 -0.0026,1.704152 -0.729797,3.326791 -2,4.462891 L 15,9 l -2,0 0,2.5 0,5.150391 C 12.358034,16.879696 11.681686,16.9979 11,17 7.6862915,17 5,14.313708 5,11 5,7.686291 7.6862915,5 11,5 Z M 13,11.5 10.5,9.75 8,8 8,11.5 8,15 10.5,13.25 13,11.5 Z" style="color:#000000;fill:#ffffff;fill-opacity:1;opacity:1"/>
</svg>

<?xml version="1.0" encoding="UTF-8" standalone="no"?>
<svg id="svg2817" xmlns:rdf="http://www.w3.org/1999/02/22-rdf-syntax-ns#" xmlns="http://www.w3.org/2000/svg" height="22" width="22" version="1.0" xmlns:cc="http://creativecommons.org/ns#" xmlns:dc="http://purl.org/dc/elements/1.1/">
 <metadata id="metadata57">
  <rdf:RDF>
   <cc:Work rdf:about="">
    <dc:format>image/svg+xml</dc:format>
    <dc:type rdf:resource="http://purl.org/dc/dcmitype/StillImage"/>
    <dc:title/>
   </cc:Work>
  </rdf:RDF>
 </metadata>
 <path id="path4142" style="color:#000000" d="m11 3a8 8 0 0 0 -8 8 8 8 0 0 0 8 8 8 8 0 0 0 8 -8 8 8 0 0 0 -8 -8zm0 2c3.3137 0 6 2.6863 6 6-0.0026 1.7042-0.7298 3.3268-2 4.4629v-6.463h-2v2.5 5.1504c-0.642 0.23-1.318 0.348-2 0.35-3.3137 0-6-2.686-6-6 0-3.3137 2.6863-6 6-6zm2 6.5-2.5-1.75-2.5-1.75v3.5 3.5l2.5-1.75 2.5-1.75z" fill="#fff"/>
</svg>
